X:1
T:No Longer Lonely
T:Robert Harkness, 1920
T:No Longer Lonely
T:Public Domain
T:Public Domain
C:Robert Harkness, 1920
Z:Public Domain
%%score ( 1 2 ) ( 3 4 )
L:1/8
M:4/4
K:Bb
V:1 treble 
V:2 treble 
V:3 bass 
V:4 bass 
V:1
 BAcB AGAB | [DF]2 [DF]3 FGD x | [EF]2 [EF]3 [A,E][A,D][A,C] | (B,2 =E2 _E2) z2 | BAcB AGAB | %5
w: 1.~On life’s path- way I am nev- er|is with me, my Lord|vine; Ev- er pre- sent|Guide, * *|trust Him on- ly, No long- er lone-|
w: 2.~I shall not be lone- ly in my|sus- tain me un- til|end; Dark- est night He|turns * *|bright- est mor- row, No long- er lone-|
w: 3.~I shall not be lone- ly in the|dows ga- ther, I will|fear; He has prom- ised|ev- * *|to up- hold me, No long- er lone-|
 [DF]2 [DF]3 FGA | [=Ec]2 (E2 z) BAG x | (F2 E2 [EF]) ||"^Refrain" [EF][EG][EA] | %9
w: mine. No long- er lone-|long- er lone- ly, For|is * *|Friend of friends|
w: Friend. * * * *||||
w: near. * * * *||||
 [DB]2 [DF]3 [DB][FA][FB] | [Ec]2 [EG]4 [EB]2 | [EA]>[EA] [EA][EG] [EF][EG][EA][Ec] | %12
w: to me; No long- er|lone- ly, No|long- er lone- ly, For Je- sus is|
w: |||
w: |||
 (F2 =E2 [_EF])[EF][EG][EA] | [DB]2 [DF]3 [DB][FA][FB] | [=Ec]2 [EG]4 [EB]2 | %15
w: the * * Friend of friends|me. * * * *||
w: |||
w: |||
 [EA]>[EA] [EA][EG] [EF][EG][EA][Ec] | (DF=E_E D2) z2 |] %17
w: ||
w: ||
w: ||
V:2
 [DF]2 [DF]2 [^C=E]2 [CE]2 | x5 [B,D]3 x | x8 | F6 x2 | [DF]2 [DF]2 [^C=E]2 [CE]2 | x5 F F2 | %6
w: lone- ly, My Lord|di-||I|ly, for He is|ly, No|
w: sor- row, He will|the||to|ly! He is my||
w: val- ley Tho’ sha-|not||er|ly! He will be||
 x2 c3 (=E2 E2) | F4- x || x3 | x8 | x8 | x8 | F4- x4 | x8 | x8 | x8 | B6 x2 |] %17
w: Je- sus *|the|||||to|||||
w: |||||||||||
w: |||||||||||
V:3
 B,A,CB, A,G,A,B, | [F,B,]2 F,2 z F,G,D, x | [F,A,]2 C,2 z G,F,[E,F,] | %3
w: ~ ~ ~ ~ ~ ~ ~ ~|~ ~ ~ ~ ~|* ~ ~ ~ ~|
 ([D,F,]2 [_D,B,]2 C,2 F,2) | B,A,CB, A,G,A,B, | [F,B,]2 F,2 B,,[C,A,]B,C | %6
w: ~ * * *|~ ~ ~ ~ ~ ~ ~ ~|~ ~ ~ ~ ~ ~|
 [C,G,]2 (C,2 z) DCB, x | (A,2 B,2 [F,C]) || [F,A,][F,B,][F,C] | %9
w: ~ ~ ~ ~ ~|~ * *|* ~ ~|
 [B,,B,]2 [B,,B,]3 [B,,F,][E,C][D,B,] | [E,G,]2 [E,B,]4 [C,C]2 | %11
w: ~ ~ ~ ~ ~|~ ~ to|
 [F,C]>[F,C] [F,C][F,B,] [F,A,][F,B,][F,C][F,A,] | [D,B,]2 [_D,B,]2 [C,A,][F,A,][F,B,][F,C] | %13
w: me; ~ ~ ~ ~ ~ ~ ~|~ ~ ~ ~ ~ ~|
 [B,,B,]2 [B,,B,]3 [B,,F,][E,C][D,B,] | [C,B,]2 [C,B,]4 [C,G,]2 | %15
w: ~ ~ ~ ~ ~|~ ~ of|
 [C,F,]>[F,C] [F,C][F,B,] [F,A,][F,B,][F,C][F,A,] | (B,A,G,_G, F,2) z2 |] %17
w: friends to me. * * * * *||
V:4
 x4 B,2 B,2 | x2 B,3 B,,4 | x2 A,3 (F,,2 F,) | x4 A,4 | x4 B,2 B,2 | x2 B,3 C,2 x | %6
w: ~ ~|~ ~|~ ~ *|~|~ ~|~ ~|
 x2 G,3 (C,2 C,2) | F,4- x || x3 | x8 | x8 | x8 | x8 | x8 | x8 | x8 | B,,6 x2 |] %17
w: ~ ~ *|~||||||||||

